assets/img/logo.svg

<?xml version="1.0" encoding="UTF-8"?>
<svg width="451px" height="327px" viewBox="0 0 451 327" version="1.1" xmlns="http://www.w3.org/2000/svg" xmlns:xlink="http://www.w3.org/1999/xlink">
    <!-- Generator: Sketch 52.6 (67491) - http://www.bohemiancoding.com/sketch -->
    <title>logo</title>
    <desc>Created with Sketch.</desc>
    <g id="logo" stroke="none" stroke-width="1" fill="none" fill-rule="evenodd">
        <g fill="#000000">
            <path d="M97.4336634,80.9710456 C108.976238,80.9710456 116.671287,72.5040617 116.671287,61.1265522 C116.671287,49.7490426 108.976238,41.2820587 97.4336634,41.2820587 C85.8910891,41.2820587 78.3287129,49.7490426 78.3287129,61.1265522 C78.3287129,72.5040617 85.8910891,80.9710456 97.4336634,80.9710456 Z M64,94.2007079 L64,1.59307183 L78.5940594,0 L78.5940594,34.9263085 C82.7069307,30.4337356 89.8712871,27.2586167 98.0970297,27.2586167 C117.865347,27.2586167 131,40.488279 131,61.1265522 C131,81.7703377 117.865347,95 98.0970297,95 C89.3405941,95 82.839604,91.4224788 78.5940594,87.3212835 L78.5940594,94.2007079 L64,94.2007079 Z" id="Fill-1"></path>
            <path d="M139,27.794401 L153.728033,27.794401 L153.728033,34.6792096 C156.941423,30.4368876 161.627615,27 171,27 L171,41.0344175 L169.661088,41.0344175 C160.283124,41.0344175 153.728033,47.6599424 153.728033,57.4520379 L153.728033,94 L139,94 L139,27.794401 Z" id="Fill-3"></path>
            <path d="M176.567568,94 L191.432432,94 L191.432432,28.1343759 L176.567568,28.1343759 L176.567568,94 Z M183.994369,1 C189.540541,1 194,5.34676896 194,10.8790204 C194,16.4167601 189.540541,20.7580407 183.994369,20.7580407 C178.459459,20.7580407 174,16.4167601 174,10.8790204 C174,5.34676896 178.459459,1 183.994369,1 Z" id="Fill-5"></path>
            <path d="M212.003864,72.2853772 C212.003864,77.8685817 216.403333,81.188624 220.802802,81.188624 C225.868856,81.188624 229.335104,78.2614533 229.335104,72.954919 C229.335104,65.5124908 222.797005,64.9868175 216.270016,63.1220604 C209.598599,61.2628367 202.399469,56.0835707 202.399469,45.3266336 C202.399469,34.7024982 210.670692,27 220.802802,27 C227.735298,27 232.93467,30.0544389 236.667552,35.4993083 L227.60198,44.3970217 C226.535443,41.7409879 224.396812,40.0145659 221.736022,40.0145659 C218.269774,40.0145659 216.403333,42.6705997 216.403333,45.3266336 C216.403333,51.169908 223.869098,51.0371064 231.068228,53.6986736 C237.867407,56.2163724 244,61.3956384 244,72.6837822 C244,85.9694849 234.267842,95 220.802802,95 C207.065572,95 198,84.9070714 198,72.2853772 L212.003864,72.2853772 Z" id="Fill-7"></path>
            <polygon id="Fill-8" points="255.427813 1.58958455 270.057703 0 270.057703 27.9909889 290 27.9909889 290 41.7197191 270.057703 41.7197191 270.057703 94 255.427813 94 255.427813 41.7197191 242 41.7197191 242 27.9909889 255.427813 27.9909889"></polygon>
            <path d="M325,80.9174872 C336.414483,80.9174872 344.121888,72.5509806 344.121888,60.9972333 C344.121888,49.443486 336.414483,41.0769794 325,41.0769794 C313.579984,41.0769794 305.872579,49.443486 305.872579,60.9972333 C305.872579,72.5509806 313.579984,80.9174872 325,80.9174872 M325,27 C344.653051,27 359,41.6081862 359,60.9972333 C359,80.3862804 344.653051,95 325,95 C305.341416,95 291,80.3862804 291,60.9972333 C291,41.6081862 305.341416,27 325,27" id="Fill-9"></path>
            <polygon id="Fill-10" points="367 1.58958455 382 0 382 94 367 94"></polygon>
            <path d="M34.0693029,180.188624 C45.3795353,180.188624 53.3632287,171.954919 53.3632287,160.002767 L68,160.002767 C68,179.38628 53.3632287,194 34.0693029,194 C14.509254,194 0,179.519082 0,160.002767 C0,140.469851 14.509254,126 34.0693029,126 C44.4481044,126 52.2987362,129.845716 58.4195679,136.092929 L47.6415817,145.787452 C44.3150428,142.201806 39.9240114,139.811376 34.0693029,139.811376 C22.626009,139.811376 14.9028944,148.045081 14.9028944,160.002767 C14.9028944,171.954919 22.626009,180.188624 34.0693029,180.188624" id="Fill-11"></path>
            <path d="M105,179.917487 C116.414483,179.917487 124.121888,171.550981 124.121888,159.997233 C124.121888,148.443486 116.414483,140.076979 105,140.076979 C93.5799837,140.076979 85.8725793,148.443486 85.8725793,159.997233 C85.8725793,171.550981 93.5799837,179.917487 105,179.917487 M105,126 C124.653051,126 139,140.608186 139,159.997233 C139,179.38628 124.653051,194 105,194 C85.3414158,194 71,179.38628 71,159.997233 C71,140.608186 85.3414158,126 105,126" id="Fill-12"></path>
            <path d="M147,127.794401 L161.590951,127.794401 L161.590951,135.34121 C165.172366,130.436888 171.533799,127 178.834801,127 C186.931673,127 192.629882,130.310004 196.211297,136.141128 C201.251807,130.839605 206.695779,127 216.240692,127 C229.77601,127 238,134.287526 238,150.567229 L238,194 L223.409049,194 L223.409049,154.274434 C223.409049,145.668423 219.424172,140.775134 211.598117,140.775134 C204.838749,140.775134 199.798239,145.668423 199.798239,154.274434 L199.798239,194 L185.201761,194 L185.201761,154.274434 C185.201761,145.668423 181.089766,140.775134 173.396356,140.775134 C166.631461,140.775134 161.590951,145.668423 161.590951,154.274434 L161.590951,194 L147,194 L147,127.794401 Z" id="Fill-13"></path>
            <path d="M261.958661,152.029132 L297.041339,152.029132 C294.931102,145.11791 287.809055,139.540239 279.5,139.540239 C271.190945,139.540239 264.068898,145.11791 261.958661,152.029132 Z M261.299213,165.049231 C262.88189,173.410204 270.399606,180.188624 279.895669,180.188624 C286.622047,180.188624 292.029528,178.058263 294.804708,173.814143 L312.076772,173.814143 C307.598015,185.893563 294.804708,194 279.895669,194 C260.766158,194 246,178.860607 246,159.997233 C246,141.139393 260.766158,126 279.5,126 C298.233842,126 313,141.139393 313,159.997233 C313,161.723655 312.873606,163.444544 312.609826,165.049231 L261.299213,165.049231 Z" id="Fill-14"></path>
            <path d="M350.563567,140.282059 C339.021945,140.282059 331.327531,148.749043 331.327531,160.132065 C331.327531,171.504062 339.021945,179.971046 350.563567,179.971046 C362.105189,179.971046 369.666942,171.504062 369.666942,160.132065 C369.666942,148.749043 362.105189,140.282059 350.563567,140.282059 Z M369.401617,193.20622 L369.401617,186.326796 C365.16195,190.427991 358.655969,194 349.900256,194 C330.13357,194 317,180.770338 317,160.132065 C317,139.488279 330.13357,126.258617 349.900256,126.258617 C358.12532,126.258617 365.289085,129.433736 369.401617,133.931821 L369.401617,100.593072 L384,99 L384,193.20622 L369.401617,193.20622 Z" id="Fill-15"></path>
            <polygon id="Fill-16" points="403.086915 127 419.502757 165.566648 435.913085 127 451 127 426.781532 181.608475 426.781532 226.404101 412.218468 228 412.218468 181.608475 388 127"></polygon>
            <path d="M58.8669528,265.899666 C66.1845494,265.899666 71.6450286,260.725135 71.6450286,252.905353 C71.6450286,244.953032 66.1845494,239.784023 58.8669528,239.784023 C51.416309,239.784023 45.9613734,244.953032 45.9613734,252.905353 C45.9613734,260.725135 51.416309,265.899666 58.8669528,265.899666 M58.0686695,226 C63.2575107,226 68.0472103,227.187326 71.6450286,229.843622 L71.6450286,226.795232 L86.2746781,226.795232 L86.2746781,252.905353 C86.2746781,260.592597 83.2201359,267.484608 77.360515,272.256001 C85.3433476,277.828148 90,286.575701 90,296.383564 C90,314.944502 76.301681,327 58.8669528,327 C42.5021459,327 30.6554006,316.661983 28,301.685111 L43.167382,301.685111 C45.1630901,308.179507 49.9527897,313.215977 58.8669528,313.215977 C68.7124464,313.215977 75.1042561,306.323965 75.1042561,296.383564 C75.1042561,286.443163 68.7124464,279.68369 58.8669528,279.68369 C52.4806867,279.68369 46.8927039,283.394773 44.3648069,288.431243 L33.72103,277.960687 C35.3175966,275.840068 37.3077611,273.846465 40.2403433,272.256001 C34.5137697,267.357592 31.3206366,260.592597 31.3206366,252.905353 C31.3206366,237.934004 42.3635551,226 58.0686695,226" id="Fill-17"></path>
            <path d="M126.764822,240.076979 C115.774704,240.076979 107.300395,249.107495 107.300395,260.002767 C107.300395,270.886972 115.774704,279.917487 126.764822,279.917487 C137.490119,279.917487 145.705122,270.886972 145.705122,260.002767 C145.705122,249.107495 137.490119,240.076979 126.764822,240.076979 Z M160,226.79681 L160,293.20319 L145.16996,293.20319 L145.16996,286.297502 C142.389328,289.883148 135.112236,294 126.235178,294 C107.300395,294 93,279.917487 93,260.002767 C93,240.076979 107.300395,226 126.235178,226 C134.974308,226 142.389328,230.116852 145.16996,233.702498 L145.16996,226.79681 L160,226.79681 Z" id="Fill-18"></path>
            <path d="M172,226.794401 L186.728033,226.794401 L186.728033,233.67921 C189.941423,229.436888 194.627615,226 204,226 L204,240.034417 L202.661088,240.034417 C193.283124,240.034417 186.728033,246.659942 186.728033,256.452038 L186.728033,293 L172,293 L172,226.794401 Z" id="Fill-19"></path>
            <path d="M238.563567,240.282059 C227.021945,240.282059 219.327531,248.749043 219.327531,260.132065 C219.327531,271.504062 227.021945,279.971046 238.563567,279.971046 C250.105189,279.971046 257.666942,271.504062 257.666942,260.132065 C257.666942,248.749043 250.105189,240.282059 238.563567,240.282059 Z M257.401617,293.20622 L257.401617,286.326796 C253.16195,290.427991 246.655969,294 237.900256,294 C218.13357,294 205,280.770338 205,260.132065 C205,239.488279 218.13357,226.258617 237.900256,226.258617 C246.12532,226.258617 253.289085,229.433736 257.401617,233.931821 L257.401617,200.593072 L272,199 L272,293.20622 L257.401617,293.20622 Z" id="Fill-20"></path>
            <path d="M295.958661,252.029132 L331.041339,252.029132 C328.931102,245.11791 321.809055,239.540239 313.5,239.540239 C305.190945,239.540239 298.068898,245.11791 295.958661,252.029132 Z M295.299213,265.049231 C296.88189,273.410204 304.399606,280.188624 313.895669,280.188624 C320.622047,280.188624 326.029528,278.058263 328.804708,273.814143 L346.076772,273.814143 C341.598015,285.893563 328.804708,294 313.895669,294 C294.766158,294 280,278.860607 280,259.997233 C280,241.139393 294.766158,226 313.5,226 C332.233842,226 347,241.139393 347,259.997233 C347,261.723655 346.873606,263.444544 346.609826,265.049231 L295.299213,265.049231 Z" id="Fill-21"></path>
            <path d="M355,226.794401 L369.53303,226.794401 L369.53303,234.34121 C372.566249,230.363689 378.511579,226 387.633257,226 C404.015945,226 413,235.665212 413,253.274434 L413,293 L398.46697,293 L398.46697,256.452038 C398.46697,244.80634 393.578588,239.775134 384.066059,239.775134 C374.553531,239.775134 369.53303,246.659942 369.53303,256.452038 L369.53303,293 L355,293 L355,226.794401 Z" id="Fill-22"></path>
        </g>
    </g>
</svg>

<svg xmlns="http://www.w3.org/2000/svg" width="451" height="327" viewBox="0 0 451 327"><title>logo</title><g fill="#000" fill-rule="evenodd"><path d="M97.434 80.971c11.542 0 19.237-8.467 19.237-19.844 0-11.378-7.695-19.845-19.237-19.845-11.543 0-19.105 8.467-19.105 19.845 0 11.377 7.562 19.844 19.105 19.844zM64 94.201V1.593L78.594 0v34.926c4.113-4.492 11.277-7.667 19.503-7.667 19.768 0 32.903 13.23 32.903 33.868C131 81.77 117.865 95 98.097 95c-8.756 0-15.257-3.578-19.503-7.679v6.88H64zM139 27.794h14.728v6.885C156.941 30.437 161.628 27 171 27v14.034h-1.339c-9.378 0-15.933 6.626-15.933 16.418V94H139V27.794zM176.568 94h14.864V28.134h-14.864V94zm7.426-93C189.541 1 194 5.347 194 10.879c0 5.538-4.46 9.879-10.006 9.879-5.535 0-9.994-4.341-9.994-9.879C174 5.347 178.46 1 183.994 1zM212.004 72.285c0 5.584 4.4 8.904 8.799 8.904 5.066 0 8.532-2.928 8.532-8.234 0-7.443-6.538-7.968-13.065-9.833-6.671-1.86-13.87-7.038-13.87-17.795C202.4 34.702 210.67 27 220.802 27c6.932 0 12.132 3.054 15.865 8.5l-9.066 8.897c-1.067-2.656-3.205-4.382-5.866-4.382-3.466 0-5.333 2.656-5.333 5.312 0 5.843 7.466 5.71 14.665 8.372 6.8 2.517 12.932 7.697 12.932 18.985C244 85.969 234.268 95 220.803 95 207.066 95 198 84.907 198 72.285h14.004zM255.428 1.59L270.058 0v27.991H290V41.72h-19.942V94h-14.63V41.72H242V27.991h13.428zM325 80.917c11.414 0 19.122-8.366 19.122-19.92 0-11.554-7.708-19.92-19.122-19.92-11.42 0-19.127 8.366-19.127 19.92 0 11.554 7.707 19.92 19.127 19.92M325 27c19.653 0 34 14.608 34 33.997C359 80.387 344.653 95 325 95c-19.659 0-34-14.614-34-34.003S305.341 27 325 27M367 1.59L382 0v94h-15zM34.07 180.189c11.31 0 19.293-8.234 19.293-20.186H68C68 179.386 53.363 194 34.07 194 14.51 194 0 179.52 0 160.003 0 140.47 14.51 126 34.07 126c10.378 0 18.229 3.846 24.35 10.093l-10.778 9.694c-3.327-3.585-7.718-5.976-13.573-5.976-11.443 0-19.166 8.234-19.166 20.192 0 11.952 7.723 20.186 19.166 20.186M105 179.917c11.414 0 19.122-8.366 19.122-19.92 0-11.554-7.708-19.92-19.122-19.92-11.42 0-19.127 8.366-19.127 19.92 0 11.554 7.707 19.92 19.127 19.92M105 126c19.653 0 34 14.608 34 33.997 0 19.39-14.347 34.003-34 34.003-19.659 0-34-14.614-34-34.003S85.341 126 105 126M147 127.794h14.591v7.547c3.581-4.904 9.943-8.341 17.244-8.341 8.097 0 13.795 3.31 17.376 9.141 5.04-5.301 10.485-9.141 20.03-9.141 13.535 0 21.759 7.288 21.759 23.567V194h-14.591v-39.726c0-8.606-3.985-13.499-11.81-13.499-6.76 0-11.8 4.893-11.8 13.5V194h-14.597v-39.726c0-8.606-4.112-13.499-11.806-13.499-6.765 0-11.805 4.893-11.805 13.5V194H147v-66.206zM261.959 152.03h35.082c-2.11-6.912-9.232-12.49-17.541-12.49-8.31 0-15.431 5.578-17.541 12.49zm-.66 13.02c1.583 8.36 9.1 15.139 18.597 15.139 6.726 0 12.134-2.13 14.909-6.375h17.272C307.598 185.894 294.805 194 279.896 194 260.766 194 246 178.86 246 159.997 246 141.14 260.766 126 279.5 126s33.5 15.14 33.5 33.997c0 1.727-.126 3.448-.39 5.052H261.3zM350.564 140.282c-11.542 0-19.236 8.467-19.236 19.85 0 11.372 7.694 19.839 19.236 19.839 11.541 0 19.103-8.467 19.103-19.839 0-11.383-7.562-19.85-19.103-19.85zm18.838 52.924v-6.88c-4.24 4.102-10.746 7.674-19.502 7.674-19.766 0-32.9-13.23-32.9-33.868 0-20.644 13.134-33.873 32.9-33.873 8.225 0 15.39 3.175 19.502 7.673v-33.339L384 99v94.206h-14.598zM403.087 127l16.416 38.567L435.913 127H451l-24.218 54.608v44.796L412.218 228v-46.392L388 127zM58.867 265.9c7.318 0 12.778-5.175 12.778-12.995 0-7.952-5.46-13.121-12.778-13.121-7.45 0-12.906 5.169-12.906 13.121 0 7.82 5.455 12.995 12.906 12.995m-.798-39.9c5.189 0 9.978 1.187 13.576 3.844v-3.049h14.63v26.11c0 7.688-3.055 14.58-8.914 19.351C85.343 277.828 90 286.576 90 296.384 90 314.944 76.302 327 58.867 327 42.502 327 30.655 316.662 28 301.685h15.167c1.996 6.495 6.786 11.531 15.7 11.531 9.845 0 16.237-6.892 16.237-16.832 0-9.94-6.392-16.7-16.237-16.7-6.386 0-11.974 3.71-14.502 8.747l-10.644-10.47c1.597-2.12 3.587-4.115 6.52-5.705-5.727-4.898-8.92-11.663-8.92-19.35C31.32 237.933 42.364 226 58.069 226M126.765 240.077c-10.99 0-19.465 9.03-19.465 19.926 0 10.884 8.475 19.914 19.465 19.914 10.725 0 18.94-9.03 18.94-19.914 0-10.896-8.215-19.926-18.94-19.926zM160 226.797v66.406h-14.83v-6.905c-2.78 3.585-10.058 7.702-18.935 7.702C107.3 294 93 279.917 93 260.003 93 240.077 107.3 226 126.235 226c8.74 0 16.154 4.117 18.935 7.702v-6.905H160zM172 226.794h14.728v6.885c3.213-4.242 7.9-7.679 17.272-7.679v14.034h-1.339c-9.378 0-15.933 6.626-15.933 16.418V293H172v-66.206zM238.564 240.282c-11.542 0-19.236 8.467-19.236 19.85 0 11.372 7.694 19.839 19.236 19.839 11.541 0 19.103-8.467 19.103-19.839 0-11.383-7.562-19.85-19.103-19.85zm18.838 52.924v-6.88c-4.24 4.102-10.746 7.674-19.502 7.674-19.766 0-32.9-13.23-32.9-33.868 0-20.644 13.134-33.873 32.9-33.873 8.225 0 15.39 3.175 19.502 7.673v-33.339L272 199v94.206h-14.598zM295.959 252.03h35.082c-2.11-6.912-9.232-12.49-17.541-12.49-8.31 0-15.431 5.578-17.541 12.49zm-.66 13.02c1.583 8.36 9.1 15.139 18.597 15.139 6.726 0 12.134-2.13 14.909-6.375h17.272C341.598 285.894 328.805 294 313.896 294 294.766 294 280 278.86 280 259.997 280 241.14 294.766 226 313.5 226s33.5 15.14 33.5 33.997c0 1.727-.126 3.448-.39 5.052H295.3zM355 226.794h14.533v7.547c3.033-3.977 8.979-8.341 18.1-8.341 16.383 0 25.367 9.665 25.367 27.274V293h-14.533v-36.548c0-11.646-4.888-16.677-14.4-16.677-9.513 0-14.534 6.885-14.534 16.677V293H355v-66.206z"/></g></svg>
